X:314
T:When the Cock Crows It is Day
B:CRE2.068(i) & (ii) (TÃÂÃÂÃÂÃÂ¡ an Coileach ag FÃÂÃÂÃÂÃÂ³gairt an Lae)
F:file ID: cre.2/314when_cc
Q:160
L:1/8
M:6/8
R:jig
K:G
P: setting 1
D|GAB AGE|c2E c2E|GAB AGE|A2D A2D|
GAB AGE|GBd gfe|dBG AFD|1 G3 G2:|2 G3 G2||
|:B/d/|g2e dBG|B2B B2d|g2e dBG|A2A ABd|
g2e dBG|c2d efg|dBG AFD|G3 G2:|
P: setting 2
D|GAB BAG|d3 d2B|GAB BAG|A3 A2D|
GAB BAG|Bcd ef/g/e|dBG AFD|G3 G2:|
B/d/|gdd gdd|ccc c2d|gdd gdd|AAA ABd|
gdd gdd|Bcd ef/g/e|dBG AFD|G3 G2:|

%%%

